!!!COM: Corelli, Arcangelo
!!!OPR: Sonata da chiesa
!!!OPS: 3
!!!ONM: 2
!!!OMV: 2
!!!OMD: Allegro
**kern	**harm	**fb	**kern	**kern
*part3	*above	*part3	*part2	*part1
*staff3	*	*	*staff2	*staff1
*I"Violone & Organo	*	*	*I"Violino II	*I"Violino I
*clefF4	*	*	*clefG2	*clefG2
*k[f#c#]	*	*	*k[f#c#]	*k[f#c#]
*D:	*	*	*D:	*D:
*M4/4	*	*	*M4/4	*M4/4
*MM104	*	*	*MM104	*MM104
=1	=1	=1	=1	=1
1r	.	.	1r	2dd
.	V	.	.	2ee
=2	=2	=2	=2	=2
1r	.	.	1r	4.ff#
.	.	.	.	8aa
.	IV	.	.	8ggL
.	.	.	.	8ff#J
.	V	.	.	4ee
=3	=3	=3	=3	=3
1r	.	.	2dd	8ddL
.	.	.	.	8d
.	.	.	.	8f#
.	.	.	.	8dJ
.	V	.	2cc#	8aL
.	.	.	.	8a
.	.	.	.	8cc#
.	.	.	.	8aJ
=4	=4	=4	=4	=4
1r	.	.	2b	4.dd
.	.	.	.	(16eeLL
.	.	.	.	16ddJJ)
.	V	.	4a	8cc#L
.	.	.	.	8aJ
.	.	.	[4aa	8r
.	I6	.	.	8ff#
=5	=5	=5	=5	=5
2r	.	.	4aa]	8bL
.	.	.	.	8cc#
.	ii	.	4.gg	8dd
.	.	.	.	8eeJ
2D	I(4)	5 4	.	4.a
.	.	.	(16aaLL	.
.	.	.	16ggJJ)	.
.	I	3	[4ff#	.
.	.	.	.	8d
=6	=6	=6	=6	=6
2E	ii(9)	9	8ff#L]	4.g
.	.	.	8bJ	.
.	ii	8	4.ee	.
.	.	.	.	16f#LL
.	.	.	.	16gJJ
4.F#	I6(9)	7	.	4.a
.	.	.	8a	.
.	I6	6	[4dd	.
8A	.	.	.	8f#
=7	=7	=7	=7	=7
8GL	IV	.	4dd]	8bL
8F#J	.	6	.	8aJ
4E	viio6	6	4cc#	4g
8DL	I	.	8ddL	4f#
8D	.	.	8ff#	.
8F#	I6	6	8aa	4dd
8DJ	.	.	8ff#J	.
=8	=8	=8	=8	=8
8AL	V	.	8eeL	2cc#
8A	.	.	8aa	.
8c#	I6/V	6	8ee	.
8AJ	.	.	8cc#J	.
2d	ii6/V	6 3	4f#	2b
.	viio64/V	#4|	4g#X	.
=9	=9	=9	=9	=9
4c#	I6/V|HC}{	6	2a	8r
.	.	.	.	8aL
4A	V	.	.	8cc#
.	.	.	.	8aJ
4F#	I6	6	4r	8ddL
.	.	.	.	8dd
4D	I	.	[4dd	8ff#
.	.	.	.	8ddJ
=10	=10	=10	=10	=10
4E	ii7	7	4dd]	4.gg
4AA	V7	.	4cc#	.
.	.	.	.	16aaLL
.	.	.	.	16ggJJ
2d	I|IAC}{	5	8r	4ff#
.	.	.	8ddL	.
.	vi6	6	8b	[4bb
.	.	.	8ddJ	.
=11	=11	=11	=11	=11
2e	ii	5	8gL	4bb]
.	.	.	8ee	.
.	viio6	6	8cc#	2ccc#
.	.	.	8eeJ	.
4.f#	V.vi	5	8aL	.
.	.	.	8ff#	.
.	IV6	6	8dd	[4ddd
8d	ii6	6	8bbJ	.
=12	=12	=12	=12	=12
4e	V7	7 #	8gg#XL	8dddL]
.	.	.	8eeJ	8ccc#J
8r	.	.	2aa	8ccc#L
8c#	.	6	.	(16dddL
.	.	.	.	16ccc#JJ)
8dL	ii65	6 5	.	2bb
8B	.	.	.	.
8e	V	#	4gg#	.
8EJ	.	.	.	.
=13	=13	=13	=13	=13
2AA	I|PAC}{	5	8aaL	8r
.	.	.	8cc#J	8aL
.	vi6	6	4.ff#	8f#
.	.	.	.	8aJ
2BB	I.vi	5	.	8dL
.	.	.	8dd	8b
.	IV6	6	[4ggni	8g
.	.	.	.	8bJ
=14	=14	=14	=14	=14
4.C#	viio	5	8ggL]	8eL
.	.	.	8eeJ	8cc#
.	V6	6	4.aa	8a
8AA	V	.	.	8cc#J
4D	I	.	.	8f#L
.	.	.	8ff#	8dd
4GG	IV	5	[4gg	8b
.	ii6	6	.	8eeJ
=15	=15	=15	=15	=15
4AA	V7	7	8ggL]	8cc#L
.	.	.	(16aaL	8aJ
.	.	.	16ggJJ)	.
8r	.	.	8ff#L	2dd
8B	.	5	(16ggL	.
.	.	.	16ff#JJ)	.
8GL	ii65	6 5	2ee	.
8E	.	.	.	.
8A	V	.	.	[4cc#
8GJ	.	.	.	.
=16	=16	=16	=16	=16
8F#L	IM65|EC	6 5	2dd	8cc#L]
8D	.	.	.	8f#J
8G	vi.VI	.	.	2b
8F#J	.	.	.	.
8EL	ii%65	6 5	2cc#	.
8C#	.	.	.	.
8F#	V	#	.	4a#X
8FF#J	.	.	.	.
=17	=17	=17	=17	=17
4BB	I|PAC}{	.	4b	8r
.	.	.	.	8bL
4B	.	.	2.r	8dd
.	.	.	.	8bJ
2A	v6	6	.	8ff#L
.	.	.	.	8ff#
.	.	.	.	8aani
.	.	.	.	8ff#J
=18	=18	=18	=18	=18
2G	VI	5	8r	2bb
.	.	.	8bL	.
.	.	.	8dd	.
.	.	.	8bJ	.
4.F#	I.I6	6	8ff#L	8aaL
.	.	.	8ff#	8dd
.	.	.	8aa	8ff#
8F#	.	.	8ff#J	8ddJ
=19	=19	=19	=19	=19
8EL	ii	.	2bb	2gg
8e	.	.	.	.
8B	.	6	.	.
8c#J	vii%7	.	.	.
8dL	I	.	4.aa	8ff#L
8A	.	.	.	(16aaL
.	.	.	.	16ggJJ)
8d	.	.	.	8ff#L
8F#J	I6	.	8aa	8aaJ
=20	=20	=20	=20	=20
4G	VI	.	8ggL	8bL
.	.	.	(16aaL	8cc#J
.	.	.	16ggJJ)	.
4D	I	.	8ff#L	2dd
.	.	.	(16ggL	.
.	.	.	16ff#JJ)	.
4.A	V(4)	5 4	8eeL	.
.	.	.	8aJ	.
.	V	3	[4aa	4cc#
8A	.	.	.	.
=21	=21	=21	=21	=21
4.B	ii.V7|DC	#	4aa]	8dd#XL
.	.	.	.	8bJ
.	V(64)	.	8ggL	4.bb
8B	V	5	8ff#J	.
4.cn	iv6(2)	7	4ee	.
.	.	6	.	8ee
.	iio64	.	8ff#L	[4aa
8A	vi	.	8eeJ	.
=22	=22	=22	=22	=22
4B	V7	7 #	8dd#XL	4aa]
.	.	.	8bJ	.
8r	.	.	8r	4gg
8G	.	6	8bb	.
8AL	IV	.	4aa	8cc#L
8B	V7	#	.	8dd#XJ
8cn	VI	.	4gg	[4ee
8GJ	i6	6	.	.
=23	=23	=23	=23	=23
8AL	ii%65	6 5	2ff#	4ee]
8F#	.	.	.	.
8B	V	#	.	4dd#X
8BBJ	.	.	.	.
4E	i|PAC}{	.	8eeL	4ee
.	.	.	8e	.
[4e	V.V	#	8g#X	4r
.	.	.	8eJ	.
=24	=24	=24	=24	=24
4e]	vi2	4 2	8f#L	2r
.	.	.	8f#	.
2d	ii6	6	8b	.
.	.	#4| 2	8f#J	.
.	V2	.	8g#XL	8r
.	.	.	8eJ	8aL
4c#	I6	6	[4a	8cc#
.	.	.	.	8aJ
=25	=25	=25	=25	=25
2B	viio6(2)	7	4a]	8ddL
.	.	.	.	8ff#
.	viio6	#6\	4g#X	8b
.	.	.	.	8ddJ
8AL	I	.	4.a	8cc#L
8AA	.	.	.	8aJ
8C#	I.V6	6	.	[4aa
8AAJ	.	.	8cc#	.
=26	=26	=26	=26	=26
8BBL	IV6(9)	7	8ddL	4aa]
8BB	.	.	8dd	.
8C#	viio	5	8ee	2gg
8C#J	.	.	8eeJ	.
8DL	I(4)	5 4	4.a	.
8E	.	.	.	.
8F#	I6	6	.	[4ff#
8DJ	.	.	8aa	.
=27	=27	=27	=27	=27
4.G	ii6(2)	7	4.bb	8ff#L]
.	.	.	.	16ggL
.	.	.	.	16ff#JJ
.	ii6	6	.	4.ee
8G	.	.	(16aaLL	.
.	.	.	16ggJJ)	.
4F#	iii7	7	4.aa	.
.	.	.	.	8a
4B	vi7	7	.	[4dd
.	.	.	8dd	.
=28	=28	=28	=28	=28
4E	ii7	7	4.gg	8ddL]
.	.	.	.	(16eeL
.	.	.	.	16ddJJ)
4A	V7	7	.	8cc#L
.	.	.	(16aaLL	(16bL
.	.	.	16ggJJ)	16cc#JJ)
2D	I|IAC}{	5	8ff#L	8ddL
.	.	.	8d	8f#J
.	vi6	6	8f#	[4b
.	.	.	8dJ	.
=29	=29	=29	=29	=29
2C#	V6(9)	7	8eL	8bL]
.	.	.	8a	8eJ
.	V6	6	8cc#	4.a
.	.	.	8aJ	.
2BB	IV6(9)	7	8ddL	.
.	.	.	8ff#	8d
.	IV6	6	8bb	[4g
.	.	.	8bJ	.
=30	=30	=30	=30	=30
1AA	V7	7 3	8cc#L	4g]
.	.	.	8a	.
.	V(64)	6 4	8dd	4f#
.	.	.	8dJ	.
.	V(4)	5 4	4.d	2e
.	V(4)	3	.	.
.	V	.	8c#	.
=31	=31	=31	=31	=31
1DD	I|PAC}	.	1d	1f#
=:|!	=:|!	=:|!	=:|!	=:|!
*-	*-	*-	*-	*-
!!!system-decoration: [{s1,s2},s3]
!!!YEM: CC BY-NC-SA 4.0; CCARH; DCML
!!!RDF**kern: i = editorial accidental